src/main/resources/icons/DatabaseIcons/icons/indexUnique.svg

<svg xmlns="http://www.w3.org/2000/svg" width="16" height="16" viewBox="0 0 16 16">
  <g fill="none" fill-rule="evenodd">
    <path fill="#40B6E0" d="M7,3.5 L9,3.5 L9,1 L7,1 L7,3.5 Z M5,5 L9,5 L9,15 L4,15 L4,13 L7,13 L7,6.996 L5,6.996 L5,5 Z"/>
    <path fill="#231F20" fill-opacity=".7" d="M13,16 C11.1508197,16 10,14.9606557 10,12.9344262 L10,9 L11.5,9 L11.5,12.895082 C11.5,14.0163934 12.0754098,14.5 13,14.5 C13.9245902,14.5 14.5,14.0360656 14.5,12.9442623 L14.5,9 L16,9 L16,12.8852459 C16,14.9704918 14.8491803,16 13,16 Z"/>
  </g>
</svg>

<svg xmlns="http://www.w3.org/2000/svg" width="16" height="16" viewBox="0 0 16 16"><rect id="frame" width="16" height="16" fill="none"/><g fill="none" fill-rule="evenodd"><path fill="#40B6E0" d="M7 3.5h2V1H7v2.5zM5 5h4v10H4v-2h3V6.996H5V5z"/><path fill="#231F20" fill-opacity=".7" d="M13 16c-1.85 0-3-1.04-3-3.066V9h1.5v3.895c0 1.121.575 1.605 1.5 1.605s1.5-.464 1.5-1.556V9H16v3.885C16 14.97 14.85 16 13 16z"/></g></svg>
